Adwaita++/apps/16/download.svg

<svg height="16" width="16" xmlns="http://www.w3.org/2000/svg">
  <g fill="#474747">
    <path d="m3.1875 0c-1.205 0-2.1875 1.01775-2.1875 2.21875v11.560547c0 1.202.9825 2.220703 2.1875 2.220703h9.625c1.205 0 2.1875-1.01775 2.1875-2.21875v-11.5605469c0-1.202-.9825-2.2207031-2.1875-2.2207031h-3.4394531v3h3.6269531v11h-10v-11h3.7070312v-3zm.8125 4v4h1.1152344l-.6796875-.6386719c-.0017-.0017-.0022063-.0042594-.0039063-.0058593-.240999-.2268761-.390625-.5390288-.390625-.8867188v-1.2558594h1.3320313c.3208217 0 .6026509.1187837.8320312.2949219a.5.5 0 0 1 .1386719-.0703125.5.5 0 0 1 .0625 0 .5.5 0 0 1 .3007812.0371094v-1.4746094zm5.3730469 0v1.453125a.5.5 0 0 1 .4433593.0976562c.2367168-.2038069.5430168-.3378906.8906248-.3378906h1.324219v-1.2128906zm2.6582031 2.5585938c-.023878.3106717-.161344.5902229-.380859.796875l-.685547.6445312h1.066406zm-8.0019531 2.4414062v4h8.0312501v-4h-2.1582032l-1.8613282 1.751953-1.8632812-1.751953zm2.4746093 1.429688a.5.5 0 0 1 .4941407.507812v.0625h2v-.0625a.5.5 0 0 1 1 0v.0625c0 .545-.455 1-1 1h-1.9980469c-.546 0-1-.455-1-1v-.0625a.5.5 0 0 1 .34375-.5.5.5 0 0 1 .0605469 0 .5.5 0 0 1 .0996093-.007812z"/>
    <path d="m-16.711868 12.919109c0 .260768.112219.495441.292969.665598.0013.0012.0026.0024.0039.0037l2.703125 2.542877 2.707031-2.546555c.18075-.170158.292969-.404831.292969-.665598v-.941398h-1c-.282093 0-.535331.109279-.716797.284994l-.283203.266607v-5.2586197a1 .94139809 0 0 0 -2 0v5.2585917l-.292972-.275795v-.0018c-.18075-.170157-.430032-.273961-.707032-.273961h-1z" stroke-width=".970257" transform="translate(21.711864 -6.305085)"/>
  </g>
</svg>

<?xml version="1.0" encoding="UTF-8" standalone="no"?>
<svg
   xmlns:dc="http://purl.org/dc/elements/1.1/"
   xmlns:cc="http://creativecommons.org/ns#"
   xmlns:rdf="http://www.w3.org/1999/02/22-rdf-syntax-ns#"
   xmlns:svg="http://www.w3.org/2000/svg"
   xmlns="http://www.w3.org/2000/svg"
   xmlns:sodipodi="http://sodipodi.sourceforge.net/DTD/sodipodi-0.dtd"
   xmlns:inkscape="http://www.inkscape.org/namespaces/inkscape"
   width="16"
   height="16"
   version="1.1"
   id="svg4"
   sodipodi:docname="download.svg"
   inkscape:version="0.92.4 (5da689c313, 2019-01-14)">
  <metadata
     id="metadata10">
    <rdf:RDF>
      <cc:Work
         rdf:about="">
        <dc:format>image/svg+xml</dc:format>
        <dc:type
           rdf:resource="http://purl.org/dc/dcmitype/StillImage" />
        <dc:title></dc:title>
      </cc:Work>
    </rdf:RDF>
  </metadata>
  <defs
     id="defs8" />
  <sodipodi:namedview
     pagecolor="#ffffff"
     bordercolor="#666666"
     borderopacity="1"
     objecttolerance="10"
     gridtolerance="10"
     guidetolerance="10"
     inkscape:pageopacity="0"
     inkscape:pageshadow="2"
     inkscape:window-width="1920"
     inkscape:window-height="1016"
     id="namedview6"
     showgrid="false"
     inkscape:zoom="14.75"
     inkscape:cx="8"
     inkscape:cy="8"
     inkscape:window-x="0"
     inkscape:window-y="27"
     inkscape:window-maximized="1"
     inkscape:current-layer="svg4" />
  <path
     style="marker:none;fill:#2e3436;fill-opacity:1"
     d="M 3.1875 0 C 1.9825 0 1 1.01775 1 2.21875 L 1 13.779297 C 1 14.981297 1.9825 16 3.1875 16 L 12.8125 16 C 14.0175 16 15 14.98225 15 13.78125 L 15 2.2207031 C 15 1.0187031 14.0175 -2.9605947e-16 12.8125 0 L 9.3730469 0 L 9.3730469 3 L 13 3 L 13 14 L 3 14 L 3 3 L 6.7070312 3 L 6.7070312 0 L 3.1875 0 z M 4 4 L 4 8 L 5.1152344 8 L 4.4355469 7.3613281 C 4.4338469 7.3596281 4.4333406 7.3570687 4.4316406 7.3554688 C 4.1906416 7.1285927 4.0410156 6.81644 4.0410156 6.46875 L 4.0410156 5.2128906 L 5.3730469 5.2128906 C 5.6938686 5.2128906 5.9756978 5.3316743 6.2050781 5.5078125 A 0.5 0.5 0 0 1 6.34375 5.4375 A 0.5 0.5 0 0 1 6.40625 5.4375 A 0.5 0.5 0 0 1 6.7070312 5.4746094 L 6.7070312 4 L 4 4 z M 9.3730469 4 L 9.3730469 5.453125 A 0.5 0.5 0 0 1 9.8164062 5.5507812 C 10.053123 5.3469743 10.359423 5.2128906 10.707031 5.2128906 L 12.03125 5.2128906 L 12.03125 4 L 9.3730469 4 z M 12.03125 6.5585938 C 12.007372 6.8692655 11.869906 7.1488167 11.650391 7.3554688 L 10.964844 8 L 12.03125 8 L 12.03125 6.5585938 z M 4.0292969 9 L 4.0292969 13 L 12.060547 13 L 12.060547 9 L 9.9023438 9 L 8.0410156 10.751953 L 6.1777344 9 L 4.0292969 9 z M 6.5039062 10.429688 A 0.5 0.5 0 0 1 6.9980469 10.9375 L 6.9980469 11 L 8.9980469 11 L 8.9980469 10.9375 A 0.5 0.5 0 0 1 9.9980469 10.9375 L 9.9980469 11 C 9.9980469 11.545 9.5430469 12 8.9980469 12 L 7 12 C 6.454 12 6 11.545 6 11 L 6 10.9375 A 0.5 0.5 0 0 1 6.34375 10.4375 A 0.5 0.5 0 0 1 6.4042969 10.4375 A 0.5 0.5 0 0 1 6.5039062 10.429688 z "
     id="path2" />
  <g
     id="g827"
     style="color:#000000;fill:#2e3436"
     transform="translate(21.711864,-6.3050847)">
    <path
       style="font-weight:400;line-height:normal;font-family:sans-serif;font-variant-ligatures:normal;font-variant-position:normal;font-variant-caps:normal;font-variant-numeric:normal;font-variant-alternates:normal;font-feature-settings:normal;text-indent:0;text-align:start;text-decoration:none;text-decoration-line:none;text-decoration-style:solid;text-decoration-color:#000000;text-transform:none;text-orientation:mixed;white-space:normal;shape-padding:0;overflow:visible;isolation:auto;mix-blend-mode:normal;stroke-width:0.97025669;marker:none"
       d="m -16.711868,12.919109 c 0,0.260768 0.112219,0.495441 0.292969,0.665598 0.0013,0.0012 0.0026,0.0024 0.0039,0.0037 l 2.703125,2.542877 2.707031,-2.546555 c 0.18075,-0.170158 0.292969,-0.404831 0.292969,-0.665598 v -0.941398 h -1 c -0.282093,0 -0.535331,0.109279 -0.716797,0.284994 l -0.283203,0.266607 V 7.2707143 a 1,0.94139809 0 0 0 -2,0 v 5.2585917 l -0.292972,-0.275795 c 0,0 0,-0.0018 0,-0.0018 -0.18075,-0.170157 -0.430032,-0.273961 -0.707032,-0.273961 h -1 z"
       id="path819"
       inkscape:connector-curvature="0" />
  </g>
</svg>
